symbols/web/grid_off/materialsymbolssharp/grid_off_wght500_48px.svg

<svg xmlns="http://www.w3.org/2000/svg" height="48" width="48"><path d="m44.3 39.35-3.2-3.2v-4.4h-4.45l-3.4-3.45h7.65v-9.05h-8.7v8l-3.2-3.2v-4.8h-4.85l-3.4-3.45h8V7.1h-9.1v7.6l-3.2-3.2V7.1h-4.4l-3.4-3.4H44.3ZM32.2 15.8h8.7V7.1h-8.7Zm12.9 33.25-4.8-4.75H3.7V7.65l-4.85-4.8L1.1.7l46.2 46.15Zm-12.9-8.2h4.9l-4.9-4.9ZM19.65 28.3h5l-5-4.9Zm0 12.55h9.1V32.7l-1-.95h-8.1ZM7.15 15.8h4.9l-4.9-5Zm0 12.5h9.05v-8.1l-.95-.95h-8.1Zm0 12.55h9.05v-9.1H7.15Z"/></svg>

<svg xmlns="http://www.w3.org/2000/svg" height="48" width="48"><path d="M44.3 39.35 41.1 36.15V31.75H36.65L33.25 28.3H40.9V19.25H32.2V27.25L29 24.05V19.25H24.15L20.75 15.8H28.75V7.1H19.65V14.7L16.45 11.5V7.1H12.05L8.65 3.7H44.3ZM32.2 15.8H40.9V7.1H32.2ZM45.1 49.05 40.3 44.3H3.7V7.65L-1.15 2.85L1.1 0.7L47.3 46.85ZM32.2 40.85H37.1L32.2 35.95ZM19.65 28.3H24.65L19.65 23.4ZM19.65 40.85H28.75V32.7L27.75 31.75H19.65ZM7.15 15.8H12.05L7.15 10.8ZM7.15 28.3H16.2V20.2L15.25 19.25H7.15ZM7.15 40.85H16.2V31.75H7.15Z"/></svg>
